X:1
T:大提琴练习曲_Book1_P22_No.29
T:大提琴练习曲_Book1_P22_No.29
L:1/8
Q:1/4=80
M:4/4
K:G
V:1 bass nm="大提琴" snm="Vc."
V:1
 !tenuto!vuG,,!tenuto!G,!tenuto!B,!tenuto!G, !tenuto!D,!tenuto!G,!tenuto!B,,!tenuto!D, | %1
"_simile" G,,G,B,G, D,G,B,,D, | G,,G,CG, E,G,C,E, | G,,G,CG, E,G,C,E, | G,,F,CA, F,A,D,F, | %5
 G,,F,CA, F,A,D,F, | G,,B,DB, G,B,D,G, | G,,B,DB, G,B,D,G, | B,,B,DB, G,B,D,G, | %9
 B,,B,DB, ^G,B,E,G, | A,,G,CG, E,G,C,E, | A,,F,CA, F,A,D,F, | G,,B,DB, G,B,D,G, | %13
 C,A,CA, E,A,C,E, | B,,G,B,G, D,G,B,,D, | A,,C,G,C, D,,C,F,C, | E,,G,B,G, E,G,B,,E, | %17
 G,,G,B,G, E,G,B,,E, | F,,E,A,E, C,E,A,,C, | F,,E,A,E, C,E,A,,C, | B,,A,B,A, F,A,E,F, | %21
 !1!^D,!0!A,!1!B,A, F,A,!1!D,!3!F, | G,,G,B,G, E,G,B,,E, | G,,B,,E,B,, G,,B,,E,,G,, | %24
 C,,E,G,E, C,E,G,,C, | E,,G,CG, E,G,C,E, | D,,=F,A,F, D,F,A,,D, | =F,,A,DA, =F,A,D,F, | %28
 G,,G,CG, E,G,C,E, | G,,G,CG, _E,G,C,E, | G,,=F,CA, E,F,D,F, | G,,=F,B,F, E,F,D,F, | %32
 E,G,CG, E,G,C,E, | C,E,G,E, C,E,G,,C, | G,,C,E,C, G,,C,E,,G,, | E,,G,,C,G,, E,,G,,C,,E,, | %36
 ^C,,A,_B,A, G,A,E,A, | =F,A,DA, F,A,D,F, | B,,B,CB, A,B,F,B, | G,B,CB, G,B,E,G, | %40
 G,,E,G,E, A,,E,G,E, | ^A,,E,G,E, B,,E,G,E, | G,,E,G,E, A,,E,G,E, |!mp! ^A,,E,G,E, B,,E,G,E, | %44
 C,E,G,E, C,E,G,E, | ^A,,E,G,E, A,,E,G,E, |"_cresc." B,,E,G,E, B,,E,G,E, | B,,D,F,D, A,,D,F,D, | %48
!f! G,,G,B,G, D,G,B,,D, | A,,G,CG, E,G,C,E, | A,,F,CF, D,F,A,,D, | B,,B,DB, G,B,D,G, | %52
 B,,G,B,G, D,G,B,,D, | C,E,A,E, C,E,A,,C, | D,B,DB, G,B,D,G, | F,A,CA, F,D,C,A,, | %56
 G,,G,B,G, F,D=F,B, | E,CG,E, C,E,A,,F, | G,,G,B,G, F,D=F,B, | E,CG,E, C,E,A,,F, | %60
 G,,G,B,G, F,CD,F, | G,,G,B,G, F,CD,F, | G,,G,B,G, D,G,B,,D, | !fermata!G,,8 |] %64

